X:1
T:Title
%%score { ( 1 3 5 ) | ( 2 4 ) }
L:1/8
Q:1/4=100
M:4/4
K:Bb
V:1 treble nm="Grand Piano"
V:3 treble 
V:5 treble 
V:2 bass 
V:4 bass 
V:1
 G2 G>G [FB]2 [FB]2 | [Ec]4 [EG]4 | B2 _A>G A2 c2 | E2 z2 z4 | G2 G>G [FB]2 [FB]2 | e2- [Fe]2 d4 | %6
w: I.~H.~Meredith * * * *||||||
 d2 [=Ec]>[B,EG] [C_EB]2 [CEA]2 | [B,DB]6 B>B | =B2 B2 _B2 A2 | B2 (3bbb b2 B>B | B2 _A2 F2 D2 | %11
w: |||||
 B,6 z2 | E4 z4[K:treble] | z4 B4 | G4 z4 | z4 G4[K:bass] | E4 z4 | z4 [DB]4 | %18
w: |||||||
 (3Bcd e>G B2 (3B_AF[Q:1/4=98][Q:1/4=97][Q:1/4=95][Q:1/4=94][Q:1/4=92][Q:1/4=91][Q:1/4=89][Q:1/4=88][Q:1/4=86][Q:1/4=84][Q:1/4=83][Q:1/4=81][Q:1/4=80][Q:1/4=78][Q:1/4=77] | %19
w: |
 E6 z2 |] %20
w: |
V:2
 [E,B,E]2 [E,B,E]>[E,B,E] [D,B,]2 [D,B,]2 | [C,G,]4 [C,C]4 | %2
 [F,CE]2 [F,CE]>[F,CE] [F,CE]2 [F,_A,E]2 | [B,,B,]6 z2 | [E,B,E]2 [E,B,E]>[E,B,E] [D,B,]2 [D,B,]2 | %5
 [C,G,]2 [F,A,]2[K:treble] [B,F]4 | [G,B,=E]2[K:bass] [C,B,]>C, F,2 F,2 | B,,6 B,>B, | %8
 =B,2 B,2 _B,2 A,2 | z2[K:treble] (3BBB B2 B,>[K:bass]B, | B,2 _A,2 F,2 D,2 | B,,6 z2 | %12
 [E,G,B,]2 [E,G,]2 [E,G,]2 [E,G,B,]2 | (3z[K:treble] GE[K:bass] z z/ F/ [B,,B,]2 [B,,B,]2 | %14
 [E,B,E]2 [E,G,]2 [C,G,C]2 [E,G,]2 | (3z EC z z/ D/ [G,,G,]2 [G,,G,]2 | %16
 [E,G,B,]2 [E,G,]2 [E,G,]2 [E,G,B,]2 | (3z[K:treble] GE[K:bass] z z/ F/ B,,2 z D | %18
 [G,B,E]2 [G,B,E]2 [F,B,D]2 (3:2:2[B,,B,]2 [B,,_A,] | G,2 z2 z4 |] %20
V:3
 x8 | x8 | x8 | F2- [DF-]>[CF-] [DF]2 z2 | x8 | E2 z2 z4 | x8 | x8 | x8 | x8 | x8 | %11
 z2 _A,2 F,2 B,2 | z2 B,2 B,2[K:treble] E2 | .[B,DF]2 [B,DF]2 D2 D2 | z2 B,2 E2 C2 | %15
 .[G,=B,D]2 [G,B,D]2 B,2[K:bass] B,2 | z2 B,2 B,2 E2 | .[B,DF]2 [B,DF]2 B,2 z B | z4 z2 D2 | %19
 z2 C2 B,2 z2 |] %20
V:4
 x8 | x8 | x8 | x8 | x8 | x4[K:treble] x4 | x2[K:bass] x6 | x8 | x8 | B,6[K:treble] z2[K:bass] | %10
 x8 | z2 _A,,2 F,,2 B,,2 | x8 | B,,2[K:treble][K:bass] B,,2 z4 | x8 | G,,2 G,,2 z4 | x8 | %17
 B,,2[K:treble][K:bass] B,,2 z2 _A,2 | x8 | E,2- [E,-_A,]2 [E,G,]2 z2 |] %20
V:5
 x8 | x8 | x8 | x8 | x8 | x8 | x8 | x8 | x8 | x8 | x8 | x8 | x6[K:treble] x2 | x8 | x8 | %15
 x6[K:bass] x2 | x8 | z4 z2 B,2 | x8 | x8 |] %20

